X:80
T:Reel de L'Enfant
R:Reel
C:Trad.
S:The Schryer Triplets
N:Coda leads to Reel du Printemp
Z:Alf -> Alf Warnock - alf0@rogers.com - http://members.rogers.com/alf0 from Pierre's handwritten copy
M:2/4
L:1/16
K:G
d|gfgb afdg|ecdc BGBd|"tr"gfgb afdf|egfa g2d2|
"tr"gfgb afdg|ecdc BGBd|bgaf gedB|ceAc BGG2||
GDB,D DGBG|cGBG AGAB|GDB,D DGBG|ceAc BGG2|
GDB,D DGBG|"@"cGBG AGAB|GDB,D DGBG|ceAc BGG2||
"@"cGBG AGA_B|Bdgb afdf|egfa gz|]
